X: 17
T:Breton tune
M:4/4
L:1/8
S:transcribed by RR from Loose Moose Ceilidh band tape
R:Other
O:France
A:Brittany
Z:Richard Robinson
K:Em
EBBE GFED | EBBE G2E2 | EBBE GFED | EBBE G2E2|\
EBBE GFEG | FGAF A2GF |
G2FE DEF2 | FGAF G2E2:|
K:DMix
DGGG ABG2 | GE EF/E/ D2D2 | \
DGGG ABG2 | GE EF/E/ D2D2 |
DGGG ABG2 | GcBc A2AG | F2FG AB G2 |\
GE EF/E/ D2D2  ||**
<end>
<start>
